tools/download-figma-icons/icons/outlined-medium/lab.svg

<svg width="24" height="24" viewBox="0 0 24 24" fill="none" xmlns="http://www.w3.org/2000/svg">
<path fill-rule="evenodd" clip-rule="evenodd" d="M7.07036 2.38646C7.7296 2.38646 8.26434 1.85247 8.26434 1.19323C8.26434 0.533992 7.7296 0 7.07036 0C6.41187 0 5.87713 0.533992 5.87713 1.19323C5.87713 1.85247 6.41187 2.38646 7.07036 2.38646ZM1.77373 19.5934C2.39472 21.2861 4.01695 22.4996 5.92192 22.4996C7.82614 22.4996 9.44911 21.2861 10.0694 19.5934H1.77373ZM5.22742 13.1135C5.22742 13.448 5.00617 13.742 4.68518 13.8342C2.81021 14.3749 1.49998 16.1194 1.49998 18.0776C1.49998 18.0803 1.50016 18.0829 1.50035 18.0855C1.50054 18.0881 1.50073 18.0908 1.50073 18.0934H10.3423C10.3423 18.0908 10.3425 18.0881 10.3427 18.0855C10.3429 18.0829 10.3431 18.0803 10.3431 18.0776C10.3431 16.1127 9.02536 14.3652 7.13764 13.8275C6.81515 13.736 6.5939 13.4412 6.5939 13.1067V9.70402H5.22742V13.1135ZM8.09388 9.70402V12.5697C10.3266 13.451 11.8431 15.6394 11.8431 18.0776C11.8431 21.3431 9.18736 23.9995 5.92191 23.9995C2.65646 23.9995 0 21.3431 0 18.0776C0 15.6477 1.50673 13.463 3.72744 12.5787V9.70402H3.2917C2.87696 9.70402 2.54171 9.36802 2.54171 8.95403C2.54171 8.54004 2.87696 8.20404 3.2917 8.20404H8.46362C8.87761 8.20404 9.21361 8.54004 9.21361 8.95403C9.21361 9.36802 8.87761 9.70402 8.46362 9.70402H8.09388ZM14.1681 19.5934L12.8241 22.4996H22.058L20.7132 19.5934H14.1681ZM16.7481 13.8485C16.7481 13.9572 16.7248 14.0645 16.6791 14.1635L14.8618 18.0934H20.0188L18.1843 14.1305C18.1385 14.0315 18.1153 13.9242 18.1153 13.8155V10.979H16.7481V13.8485ZM19.6153 13.6505L23.9112 22.9346C24.0192 23.1671 24.0004 23.4378 23.8632 23.6538C23.7252 23.8691 23.4867 23.9995 23.231 23.9995H11.6511C11.3954 23.9995 11.1561 23.8691 11.0189 23.6538C10.8809 23.4378 10.8629 23.1671 10.9701 22.9346L15.2481 13.6835V10.979H14.8551C14.4403 10.979 14.1051 10.643 14.1051 10.229C14.1051 9.81427 14.4403 9.47902 14.8551 9.47902H15.9981H18.8653H20.027C20.441 9.47902 20.777 9.81427 20.777 10.229C20.777 10.643 20.441 10.979 20.027 10.979H19.6153V13.6505ZM11.6913 4.09218C11.6913 4.75142 11.1565 5.28541 10.498 5.28541C9.8388 5.28541 9.30406 4.75142 9.30406 4.09218C9.30406 3.43294 9.8388 2.89895 10.498 2.89895C11.1565 2.89895 11.6913 3.43294 11.6913 4.09218ZM18.0016 6.43858C18.0016 7.09782 18.5356 7.63181 19.1948 7.63181C19.8541 7.63181 20.3881 7.09782 20.3881 6.43858C20.3881 5.77934 19.8541 5.24535 19.1948 5.24535C18.5356 5.24535 18.0016 5.77934 18.0016 6.43858ZM15.9678 5.70674C15.9678 6.36598 15.433 6.89997 14.7738 6.89997C14.1146 6.89997 13.5806 6.36598 13.5806 5.70674C13.5806 5.0475 14.1146 4.51351 14.7738 4.51351C15.433 4.51351 15.9678 5.0475 15.9678 5.70674ZM17.1608 3.24707C17.82 3.24707 18.354 2.71308 18.354 2.05384C18.354 1.3946 17.82 0.860604 17.1608 0.860604C16.5016 0.860604 15.9676 1.3946 15.9676 2.05384C15.9676 2.71308 16.5016 3.24707 17.1608 3.24707ZM6.34978 5.16405C6.34978 5.82329 5.81578 6.35728 5.15654 6.35728C4.4973 6.35728 3.96331 5.82329 3.96331 5.16405C3.96331 4.50481 4.4973 3.97007 5.15654 3.97007C5.81578 3.97007 6.34978 4.50481 6.34978 5.16405Z" fill="black"/>
</svg>

<svg width="24" height="24" viewBox="0 0 24 24" fill="none" xmlns="http://www.w3.org/2000/svg"><path fill-rule="evenodd" clip-rule="evenodd" d="M7.07 2.386A1.194 1.194 0 1 0 7.071 0a1.194 1.194 0 0 0 0 2.387ZM1.774 19.593A4.425 4.425 0 0 0 5.922 22.5a4.424 4.424 0 0 0 4.147-2.907H1.774Zm3.453-6.48a.75.75 0 0 1-.542.721 4.433 4.433 0 0 0-3.184 4.26h8.841v-.009l.001-.007a4.435 4.435 0 0 0-3.205-4.25.749.749 0 0 1-.544-.721V9.704H5.227v3.41Zm2.867-3.409v2.866a5.947 5.947 0 0 1 3.75 5.508A5.928 5.928 0 0 1 5.921 24 5.928 5.928 0 0 1 0 18.078a5.945 5.945 0 0 1 3.727-5.5V9.705h-.435a.75.75 0 1 1 0-1.5h5.172a.75.75 0 0 1 0 1.5h-.37Zm6.074 9.89L12.824 22.5h9.234l-1.345-2.907h-6.545Zm2.58-5.746a.75.75 0 0 1-.069.316l-1.817 3.93h5.157l-1.835-3.964a.75.75 0 0 1-.069-.315V10.98h-1.367v2.87Zm2.867-.198 4.296 9.285a.75.75 0 0 1-.68 1.065h-11.58a.75.75 0 0 1-.68-1.065l4.277-9.251v-2.705h-.393a.75.75 0 1 1 0-1.5h5.172a.75.75 0 1 1 0 1.5h-.412v2.671Zm-7.924-9.558a1.193 1.193 0 1 1-2.387 0 1.193 1.193 0 0 1 2.387 0Zm6.31 2.347a1.193 1.193 0 1 0 2.386 0 1.193 1.193 0 0 0-2.385 0Zm-2.033-.732a1.194 1.194 0 1 1-2.387-.001 1.194 1.194 0 0 1 2.387 0Zm1.193-2.46a1.193 1.193 0 1 0 0-2.386 1.193 1.193 0 0 0 0 2.386ZM6.35 5.164a1.193 1.193 0 1 1-2.386 0 1.193 1.193 0 0 1 2.386 0Z" fill="currentColor"/></svg>
